src/images/advantages/square-mobile.svg

<svg width="102" height="104" viewBox="0 0 102 104" fill="none" xmlns="http://www.w3.org/2000/svg">
<g clip-path="url(#clip0)">
<path d="M66.3198 27.812H43.1928C41.6873 27.812 40.4626 29.0367 40.4626 30.5422V40.1155L23.2813 47.3269C23.0868 47.4085 22.9545 47.5921 22.9396 47.8026C22.9247 48.0132 23.0288 48.2142 23.2099 48.3228L25.401 49.6342V63.6091C24.2805 63.8646 23.4397 64.8674 23.4397 66.0673V67.4143C23.4397 67.7233 23.6904 67.9739 23.9993 67.9739H27.9228C28.2317 67.9739 28.4824 67.7233 28.4824 67.4143V66.0673C28.4824 64.869 27.6414 63.8675 26.52 63.6104V50.304L28.2525 51.3409C28.1992 51.7404 28.2458 50.6446 28.2277 57.8471C28.2277 60.2147 34.2922 61.483 40.4626 61.5557V72.4617C40.4626 73.0251 40.6351 73.549 40.93 73.9838C41.4207 74.7097 42.2512 75.1879 43.1914 75.1879H66.3183C67.8224 75.1879 69.046 73.964 69.046 72.4603C69.046 72.535 69.043 70.1501 69.046 30.5426C69.046 29.0575 67.818 27.812 66.3198 27.812ZM27.3633 66.0673V66.8548H24.5588V66.0673C24.5588 65.2921 25.1864 64.6612 25.9576 64.6612C26.7328 64.6612 27.3633 65.2921 27.3633 66.0673ZM66.3198 74.066H43.1928C42.6379 74.066 42.1477 73.7851 41.8578 73.3587C41.6842 73.102 41.5827 72.7927 41.5827 72.4603V68.6798H67.9241V72.4617C67.9241 73.3381 67.1938 74.066 66.3198 74.066ZM67.9241 67.5608H41.5816V61.559C44.5943 61.5245 53.8238 60.861 53.8238 57.8471C53.8204 53.3225 53.8318 51.4877 53.8096 51.3324L58.834 48.3228C59.015 48.2142 59.1192 48.0132 59.1043 47.8026C59.0893 47.5921 58.9571 47.4085 58.7626 47.3269L41.5816 40.1153V35.4421H67.9241V67.5608ZM41.0221 54.1322C37.9185 54.1322 31.9428 54.533 29.3468 56.2282C29.3633 51.0432 29.1669 51.3809 29.8054 50.9412C31.418 49.7537 36.0305 48.9246 41.0221 48.9246C43.1993 48.9246 52.7047 49.5231 52.7047 51.5357V56.229C50.0844 54.518 44.139 54.1322 41.0221 54.1322ZM41.5827 30.5426C41.5827 29.6556 42.3044 28.934 43.1914 28.934H66.3183C67.2061 28.934 67.9241 29.6657 67.9241 30.5422V34.323H41.5827V30.5426ZM41.0221 41.0941L57.3106 47.9308L53.2746 50.3461C51.1289 48.2182 44.0309 47.8055 41.0221 47.8055C38.0094 47.8055 30.9109 48.2194 28.7698 50.3467L24.7325 47.9308L41.0221 41.0941ZM29.3468 57.8471C29.3468 56.9415 33.3567 55.2513 41.0221 55.2513C48.6923 55.2513 52.7047 56.9415 52.7047 57.8471C52.7047 58.7534 48.6923 60.4436 41.0221 60.4436C33.3567 60.4436 29.3468 58.7534 29.3468 57.8471Z" fill="#FF6B09"/>
<path d="M54.7549 69.5234C53.7345 69.5234 52.9044 70.3533 52.9044 71.3739C52.9044 72.3946 53.7345 73.2252 54.7549 73.2252C55.7756 73.2252 56.6057 72.3946 56.6057 71.3739C56.6057 70.3533 55.7756 69.5234 54.7549 69.5234ZM54.7549 72.1061C54.3516 72.1061 54.0234 71.7776 54.0234 71.3739C54.0234 70.9703 54.3516 70.6425 54.7549 70.6425C55.1585 70.6425 55.4867 70.9703 55.4867 71.3739C55.4867 71.7776 55.1585 72.1061 54.7549 72.1061Z" fill="#FF6B09"/>
<path d="M56.8892 31.069H52.6206V32.188H56.8892V31.069Z" fill="#FF6B09"/>
</g>
<path d="M101 15V1H1V103H101V89" stroke="#FF6B09" stroke-width="2"/>
<defs>
<clipPath id="clip0">
<rect width="48" height="47" fill="white" transform="translate(22 28)"/>
</clipPath>
</defs>
</svg>

<svg width="102" height="104" fill="none" xmlns="http://www.w3.org/2000/svg"><g clip-path="url(#clip0)" fill="#FF6B09"><path d="M66.32 27.812H43.193a2.733 2.733 0 00-2.73 2.73v9.573L23.28 47.328a.559.559 0 00-.071.996l2.191 1.311V63.61a2.525 2.525 0 00-1.961 2.458v1.347c0 .31.25.56.56.56h3.923a.56.56 0 00.56-.56v-1.347c0-1.198-.842-2.2-1.963-2.457V50.304l1.733 1.037c-.054.4-.007-.696-.025 6.506 0 2.368 6.064 3.636 12.235 3.709v10.906a2.727 2.727 0 002.729 2.726h23.126a2.73 2.73 0 002.728-2.728c0 .075-.003-2.31 0-41.917 0-1.485-1.228-2.731-2.726-2.731zM27.363 66.067v.788H24.56v-.788c0-.775.627-1.406 1.399-1.406.775 0 1.405.631 1.405 1.406zm38.957 7.999H43.193c-.555 0-1.045-.28-1.335-.707a1.599 1.599 0 01-.275-.899v-3.78h26.341v3.782c0 .876-.73 1.604-1.604 1.604zm1.604-6.505H41.582v-6.002c3.012-.034 12.242-.698 12.242-3.712-.004-4.525.008-6.36-.014-6.515l5.024-3.01a.56.56 0 00-.071-.995l-17.181-7.212v-4.673h26.342v32.119zM41.022 54.132c-3.103 0-9.08.401-11.675 2.096.016-5.185-.18-4.847.458-5.287 1.613-1.187 6.226-2.016 11.217-2.016 2.177 0 11.683.598 11.683 2.61v4.694c-2.62-1.711-8.566-2.097-11.683-2.097zm.56-23.59a1.61 1.61 0 011.61-1.608h23.126c.888 0 1.606.732 1.606 1.608v3.781H41.583v-3.78zm-.56 10.552l16.289 6.837-4.036 2.415c-2.146-2.128-9.244-2.54-12.253-2.54-3.013 0-10.111.413-12.252 2.54l-4.037-2.415 16.29-6.837zM29.347 57.847c0-.906 4.01-2.596 11.675-2.596 7.67 0 11.683 1.69 11.683 2.596 0 .906-4.013 2.597-11.683 2.597-7.665 0-11.675-1.69-11.675-2.597z"/><path d="M54.755 69.523c-1.02 0-1.85.83-1.85 1.85 0 1.022.83 1.852 1.85 1.852s1.85-.83 1.85-1.851c0-1.02-.83-1.85-1.85-1.85zm0 2.583a.733.733 0 010-1.463.732.732 0 010 1.463zM56.89 31.069h-4.27v1.119h4.27v-1.119z"/></g><path d="M101 15V1H1v102h100V89" stroke="#FF6B09" stroke-width="2"/><defs><clipPath id="clip0"><path fill="#fff" transform="translate(22 28)" d="M0 0h48v47H0z"/></clipPath></defs></svg>
